.local/share/icons/Gruvbox-Plus-Dark/apps/16/reditr.svg

<svg width="16" height="16" version="1.1" xmlns="http://www.w3.org/2000/svg">
  <defs>
    <style id="current-color-scheme" type="text/css">.ColorScheme-Text { color:#ebdbb2; } .ColorScheme-Highlight { color:#458588; }</style>
  </defs>
  <path class="ColorScheme-Text" d="m12.52 6.79c-1.209 3.08-9.161 3.553-9.569 2.313-0.708-2.383 0.86-4.833 3.502-5.472 2.643-0.638 5.359 0.777 6.067 3.159zm0 0.862s-6.559 4.746-10.77 3.227c-0.732-0.576 0.656-1.536 0.654-1.755-1.61 0.64-2.408 1.472-2.408 2.474 0.685 2.231 6.904-0.222 7.937-0.69 2.047-0.983 4.585-3.256 4.585-3.256zm-8.348 4.87s8.042-1.858 9.849-5.827c0.085-0.891-1.317-0.556-1.477-0.699 2.253-1.033 3.563 0.03 3.447 0.699-0.21 1.213-2.711 3.195-5.977 4.489-2.146 0.818-5.842 1.338-5.842 1.338z" fill="currentColor"/>
</svg>

<svg xmlns="http://www.w3.org/2000/svg" style="isolation:isolate" width="16" height="16" viewBox="0 0 16 16">
 <defs>
  <style id="current-color-scheme" type="text/css">
   .ColorScheme-Text { color:#ebdbb2; } .ColorScheme-Highlight { color:#458588; }
  </style>
  <linearGradient id="arrongin" x1="0%" x2="0%" y1="0%" y2="100%">
   <stop offset="0%" style="stop-color:#d79921; stop-opacity:1"/>
   <stop offset="100%" style="stop-color:#b57614; stop-opacity:1"/>
  </linearGradient>
  <linearGradient id="aurora" x1="0%" x2="0%" y1="0%" y2="100%">
   <stop offset="0%" style="stop-color:#83a598; stop-opacity:1"/>
   <stop offset="100%" style="stop-color:#b16286; stop-opacity:1"/>
  </linearGradient>
  <linearGradient id="fitdance" x1="0%" x2="0%" y1="0%" y2="100%">
   <stop offset="0%" style="stop-color:#8ec07c; stop-opacity:1"/>
   <stop offset="100%" style="stop-color:#458588; stop-opacity:1"/>
  </linearGradient>
  <linearGradient id="oomox" x1="0%" x2="0%" y1="0%" y2="100%">
   <stop offset="0%" style="stop-color:#458588; stop-opacity:1"/>
   <stop offset="100%" style="stop-color:#928374; stop-opacity:1"/>
  </linearGradient>
  <linearGradient id="rainblue" x1="0%" x2="0%" y1="0%" y2="100%">
   <stop offset="0%" style="stop-color:#b8bb26; stop-opacity:1"/>
   <stop offset="100%" style="stop-color:#076678; stop-opacity:1"/>
  </linearGradient>
  <linearGradient id="sunrise" x1="0%" x2="0%" y1="0%" y2="100%">
   <stop offset="0%" style="stop-color: #fe8019; stop-opacity:1"/>
   <stop offset="100%" style="stop-color: #fabd2f; stop-opacity:1"/>
  </linearGradient>
  <linearGradient id="telinkrin" x1="0%" x2="0%" y1="0%" y2="100%">
   <stop offset="0%" style="stop-color: #83a598; stop-opacity:1"/>
   <stop offset="100%" style="stop-color: #83a598; stop-opacity:1"/>
  </linearGradient>
  <linearGradient id="60spsycho" x1="0%" x2="0%" y1="0%" y2="100%">
   <stop offset="0%" style="stop-color: #fb4934; stop-opacity:1"/>
   <stop offset="25%" style="stop-color: #fabd2f; stop-opacity:1"/>
   <stop offset="50%" style="stop-color: #fe8019; stop-opacity:1"/>
   <stop offset="100%" style="stop-color: #689d6a; stop-opacity:1"/>
  </linearGradient>
  <linearGradient id="90ssummer" x1="0%" x2="0%" y1="0%" y2="100%">
   <stop offset="0%" style="stop-color: #b16286; stop-opacity:1"/>
   <stop offset="20%" style="stop-color: #8ec07c; stop-opacity:1"/>
   <stop offset="50%" style="stop-color: #fabd2f; stop-opacity:1"/>
   <stop offset="100%" style="stop-color: #458588; stop-opacity:1"/>
  </linearGradient>
  <linearGradient id="cyberneon" x1="0%" x2="0%" y1="0%" y2="100%">
    <stop offset="0" style="stop-color:#83a598; stop-opacity:1"/>
    <stop offset="1" style="stop-color:#b16286; stop-opacity:1"/>
  </linearGradient>
 </defs>
 <path style="fill:currentColor" class="ColorScheme-Text" fill-rule="evenodd" d="M 12.522 6.79 C 11.313 9.87 3.361 10.343 2.953 9.103 C 2.245 6.72 3.813 4.27 6.455 3.631 C 9.098 2.993 11.814 4.408 12.522 6.79 L 12.522 6.79 Z M 12.522 7.652 C 12.522 7.652 5.963 12.398 1.754 10.879 C 1.022 10.303 2.41 9.343 2.408 9.124 C 0.798 9.764 0 10.596 0 11.598 C 0.685 13.829 6.904 11.376 7.937 10.908 C 9.984 9.925 12.522 7.652 12.522 7.652 L 12.522 7.652 L 12.522 7.652 Z M 4.174 12.522 C 4.174 12.522 12.216 10.664 14.023 6.695 C 14.108 5.804 12.706 6.139 12.546 5.996 C 14.799 4.963 16.109 6.026 15.993 6.695 C 15.783 7.908 13.282 9.89 10.016 11.184 C 7.87 12.002 4.174 12.522 4.174 12.522 L 4.174 12.522 Z"/>
</svg>
